!!! OTL: Berkowitz197
!!! Chapter: 1
!!! Section: II
!!! Page: 46
!!! Mode: 
!!! Encoder: DJB
**kern
*staff1
*I"Piano
=1-
*clefC3
*k[b-e-]
*g:
*M4/4
4r
4r
4r
8g\L
8a\J
=2
4b-\
8a\L
8g\J
4f#\
4a\
=3
4g\
4d\
4r
4d\
=4
4e-\
8d\L
8c\J
4B-/
4c\
=5
2d\
4r
4d\
=6
4g\
8a\L
8b-\J
4a\
8a\L
8f#\J
=7
4g\
4d\
4g\
4e-\
=8
!!linebreak:original
4d\
8g\L
8b-\J
4dd\
8cc\L
8b-\J
=9
4.a\
8b-\
4g\
4r
==
*-
